assets/img/icons/duotone-icons/Communication/Chat#5.svg

<?xml version="1.0" encoding="UTF-8"?>
<svg width="24px" height="24px" viewBox="0 0 24 24" version="1.1" xmlns="http://www.w3.org/2000/svg" xmlns:xlink="http://www.w3.org/1999/xlink">
    <!-- Generator: Sketch 52.2 (67145) - http://www.bohemiancoding.com/sketch -->
    <title>Stockholm-icons / Communication / Chat#5</title>
    <desc>Created with Sketch.</desc>
    <g id="Stockholm-icons-/-Communication-/-Chat#5" stroke="none" stroke-width="1" fill="none" fill-rule="evenodd">
        <rect id="bound" x="0" y="0" width="24" height="24"></rect>
        <path d="M21.9999843,15.009808 L22.0249378,15 L22.0249378,19.5857864 C22.0249378,20.1380712 21.5772226,20.5857864 21.0249378,20.5857864 C20.7597213,20.5857864 20.5053674,20.4804296 20.317831,20.2928932 L18.0249378,18 L6,18 C4.34314575,18 3,16.6568542 3,15 L3,6 C3,4.34314575 4.34314575,3 6,3 L19,3 C20.6568542,3 22,4.34314575 22,6 L22,15 C22,15.0032706 21.9999948,15.0065399 21.9999843,15.009808 Z" id="Combined-Shape" fill="#335EEA" opacity="0.3"></path>
        <path d="M7.5,12 C6.67157288,12 6,11.3284271 6,10.5 C6,9.67157288 6.67157288,9 7.5,9 C8.32842712,9 9,9.67157288 9,10.5 C9,11.3284271 8.32842712,12 7.5,12 Z M12.5,12 C11.6715729,12 11,11.3284271 11,10.5 C11,9.67157288 11.6715729,9 12.5,9 C13.3284271,9 14,9.67157288 14,10.5 C14,11.3284271 13.3284271,12 12.5,12 Z M17.5,12 C16.6715729,12 16,11.3284271 16,10.5 C16,9.67157288 16.6715729,9 17.5,9 C18.3284271,9 19,9.67157288 19,10.5 C19,11.3284271 18.3284271,12 17.5,12 Z" id="Combined-Shape" fill="#335EEA" opacity="0.3"></path>
    </g>
</svg>

<svg width="24" height="24" viewBox="0 0 24 24" xmlns="http://www.w3.org/2000/svg"><g fill="none" fill-rule="evenodd"><path d="M0 0h24v24H0z"/><path d="M22 15.01l.025-.01v4.586a1 1 0 01-1.707.707L18.025 18H6a3 3 0 01-3-3V6a3 3 0 013-3h13a3 3 0 013 3v9.01z" fill="#335EEA" opacity=".3"/><path d="M7.5 12a1.5 1.5 0 110-3 1.5 1.5 0 010 3zm5 0a1.5 1.5 0 110-3 1.5 1.5 0 010 3zm5 0a1.5 1.5 0 110-3 1.5 1.5 0 010 3z" fill="#335EEA" opacity=".3"/></g></svg>
